frontend/public/svg/Three clover.svg

<svg width="16" height="16" viewBox="0 0 16 16" fill="none" xmlns="http://www.w3.org/2000/svg">
<g id="Three clover">
<g id="Group">
<g id="Group_2">
<g id="Icons_19_">
<g id="Group_3">
<path id="Vector" d="M7.62266 6.7175C7.83168 6.91312 8.1673 6.91312 8.37632 6.7175C9.05109 6.08482 10.4283 4.77137 10.7716 4.26723C11.2656 3.54064 11.7584 2.94093 11.7584 1.89464C11.7584 0.848359 10.8658 0.000488281 9.76413 0.000488281C8.9928 0.000488281 8.33157 0.419673 7.9989 1.02721C7.6674 0.419673 7.00559 0.000488281 6.23485 0.000488281C5.13261 0.000488281 4.23999 0.848359 4.23999 1.89464C4.23999 2.94093 4.73341 3.54064 5.22741 4.26723C5.57068 4.77081 6.9473 6.08482 7.62266 6.7175Z" fill="#E2E8F0"/>
<path id="Vector_2" d="M7.2594 7.2488C6.42153 6.82626 4.68987 5.97001 4.08046 5.8096C3.20256 5.57877 2.45242 5.31161 1.40023 5.62404C0.348634 5.93647 -0.237223 6.99841 0.0913279 7.99719C0.321549 8.69583 0.940969 9.16923 1.65106 9.28883C1.13939 9.77117 0.915061 10.495 1.14469 11.1936C1.47383 12.1924 2.59256 12.7474 3.64533 12.4361C4.69693 12.1236 5.15267 11.4982 5.73558 10.8331C6.14009 10.372 7.04979 8.73216 7.48432 7.93123C7.61916 7.68363 7.51965 7.37959 7.2594 7.2488Z" fill="#E2E8F0"/>
<path id="Vector_3" d="M14.599 5.62453C13.5468 5.3121 12.7967 5.57926 11.9188 5.81009C11.3094 5.9705 9.57652 6.82619 8.73983 7.24929C8.48194 7.38007 8.38125 7.68412 8.51491 7.93228C8.94945 8.7332 9.85915 10.3736 10.2637 10.8342C10.8466 11.4987 11.3035 12.1252 12.3551 12.4371C13.4073 12.7501 14.5266 12.1929 14.8557 11.1941C15.0859 10.4955 14.861 9.77166 14.3493 9.28988C15.0594 9.17027 15.6789 8.69631 15.9085 7.99823C16.2365 6.9989 15.6512 5.93696 14.599 5.62453Z" fill="#E2E8F0"/>
<path id="Vector_4" d="M9.92898 15.8243C10.1498 15.4957 10.3729 15.1671 10.5949 14.8351C10.7056 14.6696 10.6932 14.45 10.5531 14.3052C8.96452 12.6687 8.45639 8.7133 8.45639 8.7133C8.43814 8.50818 8.26738 8.33715 8.04364 8.31647C7.79163 8.29355 7.56789 8.4685 7.54375 8.70771C7.54375 8.70771 7.49252 9.20347 7.48428 9.93061C7.47957 10.2537 7.34473 13.9464 9.29896 15.8814C9.47914 16.0602 9.78885 16.0334 9.92898 15.8243Z" fill="#E2E8F0"/>
</g>
</g>
</g>
</g>
</g>
</svg>

<svg xmlns="http://www.w3.org/2000/svg" width="16" height="16" fill="none" viewBox="0 0 16 16"><path fill="#E2E8F0" d="M7.623 6.718a.557.557 0 0 0 .753 0c.675-.633 2.052-1.947 2.396-2.45.494-.727.986-1.327.986-2.373S10.866 0 9.764 0C8.993 0 8.332.42 8 1.027A2 2 0 0 0 6.235 0C5.133 0 4.24.848 4.24 1.895c0 1.046.493 1.646.987 2.372.344.504 1.72 1.818 2.396 2.45m-.363.532c-.838-.423-2.57-1.279-3.18-1.44-.877-.23-1.628-.497-2.68-.185C.35 5.936-.237 6.998.091 7.997c.23.699.85 1.172 1.56 1.292-.512.482-.736 1.206-.506 1.905.329.998 1.448 1.553 2.5 1.242 1.052-.312 1.508-.938 2.09-1.603.405-.461 1.315-2.1 1.75-2.902a.495.495 0 0 0-.226-.682m7.34-1.624c-1.052-.313-1.802-.046-2.68.185-.61.16-2.342 1.016-3.18 1.44a.5.5 0 0 0-.224.682c.434.801 1.344 2.442 1.749 2.902.583.665 1.04 1.291 2.091 1.603s2.172-.244 2.5-1.243c.23-.699.006-1.422-.506-1.904.71-.12 1.33-.594 1.56-1.292.327-1-.258-2.061-1.31-2.373m-4.67 10.199q.332-.491.666-.989a.42.42 0 0 0-.042-.53C8.965 12.67 8.456 8.713 8.456 8.713a.45.45 0 0 0-.412-.397.45.45 0 0 0-.5.392s-.051.495-.06 1.223c-.004.323-.14 4.015 1.815 5.95.18.18.49.152.63-.057"/></svg>
